icons/production/nodejs.svg

<?xml version="1.0" encoding="UTF-8" standalone="no"?>
<svg width="24px" height="24px" viewBox="0 0 24 24" version="1.1" xmlns="http://www.w3.org/2000/svg">
<!--Generator: Sketch 3.8.3 (29802) - http://www.bohemiancoding.com/sketch-->
    <title>
        nodejs
    </title>
    <desc>
        Created with Sketch.
    </desc>
    <g id="Page-1" stroke="none" stroke-width="1" fill="none" fill-rule="evenodd">
        <path d="M12.0030993,2 C11.7294571,2 11.450716,2.06773833 11.2170653,2.19879106 L3.7810851,6.43131826 C3.29868694,6.70596639 3,7.22077769 3,7.76884234 L3,16.2263298 C3,16.775626 3.29868694,17.2903388 3.7810851,17.5637553 L5.72942379,18.6710183 C6.6767238,19.1278949 7.01290283,19.1329198 7.44281207,19.1329198 C8.84376632,19.1329198 9.64984614,18.2954278 9.64984614,16.8421327 L9.64984614,8.49056344 C9.64984614,8.37479247 9.54736778,8.27872721 9.42989258,8.27872721 L8.48759151,8.27872721 C8.37011631,8.27872721 8.27263689,8.37479247 8.27263689,8.49056344 L8.27263689,16.8421327 C8.27263689,17.4874943 7.59403015,18.1266485 6.49051311,17.583461 L4.45594263,16.4232882 C4.3822082,16.3851577 4.33846743,16.3087981 4.33846743,16.2263298 L4.33846743,7.76884234 C4.33846743,7.68755635 4.3822082,7.60996517 4.45594263,7.56685896 L11.8856241,3.3424505 C11.9543096,3.29934429 12.0468901,3.29934429 12.1143759,3.3424505 L19.5502061,7.56685896 C19.6176918,7.60996517 19.6614826,7.68755635 19.6614826,7.76884234 L19.6614826,16.2263298 C19.6614826,16.3087981 19.6176918,16.3851577 19.5502061,16.4283131 L12.1143759,20.657648 C12.0517891,20.6957785 11.9543096,20.6957785 11.8806252,20.657648 L9.97602728,19.541813 C9.91853942,19.5073281 9.84480499,19.4937311 9.79106633,19.5270338 C9.26367767,19.820156 9.1611993,19.8582865 8.66880325,20.0269672 C8.54632911,20.0701227 8.36511736,20.1428367 8.73628901,20.3497465 L11.2170653,21.7981152 C11.4557149,21.9323109 11.7244582,22 11.9981004,22 C12.2755418,22 12.5442851,21.9323109 12.7792355,21.7981152 L20.2188649,17.5637553 C20.696964,17.2903388 21,16.775626 21,16.2263298 L21,7.76884234 C21,7.22077769 20.696964,6.71089282 20.2188649,6.43131826 L12.7792355,2.19879106 C12.5491841,2.06773833 12.2755418,2 12.0030993,2 L12.0030993,2 Z M13.9938791,8.05703814 C11.8756263,8.05703814 10.6108933,8.9376364 10.6108933,10.414332 C10.6108933,12.021627 11.8706273,12.4649066 13.9064975,12.6620621 C16.3371844,12.8972496 16.528344,13.2483065 16.528344,13.7199624 C16.528344,14.5377487 15.8597852,14.8888057 14.2976149,14.8888057 C12.3243315,14.8888057 11.895622,14.4034544 11.7481532,13.436693 C11.7344561,13.3357013 11.6418756,13.2580609 11.5343983,13.2580609 L10.5722014,13.2580609 C10.4546262,13.2580609 10.3572468,13.3492982 10.3572468,13.4699956 C10.3572468,14.7016016 11.0408025,16.1733214 14.2976149,16.1733214 C16.6496184,16.1733214 18.0018329,15.2594698 18.0018329,13.6620276 C18.0018329,12.0794632 16.9183617,11.6607172 14.628845,11.3626685 C12.3192326,11.0596935 12.0855819,10.9056935 12.0855819,10.3711765 C12.0855819,9.9290792 12.2855397,9.34160316 13.9938791,9.34160316 C15.5223564,9.34160316 16.0885369,9.66921034 16.3184883,10.6841029 C16.3371844,10.7801682 16.4258657,10.8478573 16.528344,10.8478573 L17.4944401,10.8478573 C17.5531277,10.8478573 17.6119153,10.8244075 17.6507071,10.7801682 C17.6893989,10.7370127 17.7143936,10.679078 17.7043957,10.6174977 C17.5581266,8.87112968 16.3809751,8.05703814 13.9938791,8.05703814 L13.9938791,8.05703814 Z" id="nodejs" fill="#000"/>
    </g>
</svg>

<svg xmlns="http://www.w3.org/2000/svg" viewBox="0 0 24 24">
    <path fill-rule="evenodd" d="M12.003 2c-.274 0-.552.068-.786.199L3.781 6.43A1.554 1.554 0 0 0 3 7.77v8.457c0 .55.299 1.064.781 1.338L5.73 18.67c.948.457 1.284.462 1.714.462 1.4 0 2.207-.838 2.207-2.29V8.49a.22.22 0 0 0-.22-.212h-.942a.215.215 0 0 0-.215.212v8.351c0 .645-.679 1.285-1.782.741l-2.035-1.16a.22.22 0 0 1-.118-.197V7.77c0-.081.044-.159.118-.202l7.43-4.225a.218.218 0 0 1 .228 0l7.436 4.225a.24.24 0 0 1 .111.202v8.457a.242.242 0 0 1-.11.202l-7.437 4.23a.253.253 0 0 1-.233 0l-1.905-1.116c-.057-.035-.131-.048-.185-.015-.527.293-.63.331-1.122.5-.123.043-.304.116.067.323l2.481 1.448c.239.134.507.202.781.202.278 0 .546-.068.781-.202l7.44-4.234c.478-.274.781-.788.781-1.338V7.77c0-.548-.303-1.058-.781-1.338L12.779 2.2a1.582 1.582 0 0 0-.776-.2zm1.99 6.057c-2.117 0-3.382.88-3.382 2.357 0 1.608 1.26 2.05 3.295 2.248 2.431.235 2.622.586 2.622 1.058 0 .818-.668 1.169-2.23 1.169-1.974 0-2.402-.486-2.55-1.452a.214.214 0 0 0-.214-.179h-.962a.212.212 0 0 0-.215.212c0 1.232.684 2.703 3.94 2.703 2.353 0 3.705-.914 3.705-2.511 0-1.583-1.084-2.001-3.373-2.3-2.31-.302-2.543-.456-2.543-.99 0-.443.2-1.03 1.908-1.03 1.528 0 2.095.327 2.324 1.342a.21.21 0 0 0 .21.164h.966a.208.208 0 0 0 .157-.068.198.198 0 0 0 .053-.163c-.146-1.746-1.323-2.56-3.71-2.56z"/>
</svg>
